; generated by Slic3r 1.1.7 on 2014-11-30 at 18:28:31

; perimeters extrusion width = 0.40mm
; infill extrusion width = 0.42mm
; solid infill extrusion width = 0.42mm
; top infill extrusion width = 0.42mm

G21 ; set units to millimeters
M107
G28 ; home all axes
G1 Z5 F5000 ; lift nozzle
G90 ; use absolute coordinates
G92 E0
M82 ; use absolute distances for extrusion
G1 F1800.000 E-1.00000
G92 E0
G1 Z0.550 F4800.000
G1 X72.905 Y75.749 F4800.000
G1 E1.00000 F1800.000
G1 X74.658 Y74.267 E1.03612 F1080.000
G1 X76.811 Y73.472 E1.07224
G1 X78.000 Y73.364 E1.09103
G1 X98.000 Y73.364 E1.40575
G1 X100.261 Y73.761 E1.44187
G1 X102.251 Y74.905 E1.47799 F1080.000
G1 X103.733 Y76.658 E1.51411
G1 X104.528 Y78.811 E1.55023
G1 X104.636 Y80.000 E1.56902
G1 X104.636 Y100.000 E1.88375
G1 X104.239 Y102.261 E1.91987
G1 X103.095 Y104.251 E1.95599
G1 X101.342 Y105.733 E1.99211
G1 X99.189 Y106.528 E2.02823
G1 X98.000 Y106.636 E2.04701
G1 X78.000 Y106.636 E2.36174
G1 X75.739 Y106.239 E2.39786
G1 X73.749 Y105.095 E2.43398
G1 X72.267 Y103.342 E2.47010
G1 X71.472 Y101.189 E2.50622
G1 X71.364 Y100.000 E2.52501
G1 X71.364 Y80.000 E2.83973
G1 X71.761 Y77.739 E2.87585
G1 X72.875 Y75.801 E2.91103
G1 F1800.000 E1.91103
G92 E0
G1 X97.014 Y99.014 F4800.000
G1 E1.00000 F1800.000
G1 X78.986 Y99.014 E1.28371 F540.000
G1 X78.986 Y80.986 E1.56741
G1 X97.014 Y80.986 E1.85112
G1 X97.014 Y98.954 E2.13388
G1 X97.650 Y99.650 F4800.000
G1 X78.350 Y99.650 E2.43759 F378.000
G1 X78.350 Y80.350 E2.74130
G1 X97.650 Y80.350 E3.04501
G1 X97.650 Y99.590 E3.34778
G1 X97.304 Y99.450 F4800.000
G1 X79.466 Y98.574 F4800.000
G1 X79.426 Y98.534 E3.34867 F720.000
G1 X79.426 Y97.633 E3.36284
G1 X80.367 Y98.574 E3.38377
G1 X81.267 Y98.574 E3.39793
G1 X79.426 Y96.733 E3.43890
G1 X79.426 Y95.832 E3.45307
G1 X82.168 Y98.574 E3.51407
G1 X83.068 Y98.574 E3.52824
G1 X79.426 Y94.932 E3.60928
G1 X79.426 Y94.032 E3.62345
G1 X83.968 Y98.574 E3.72452
G1 X84.869 Y98.574 E3.73869
G1 X79.426 Y93.131 E3.85981
G1 X79.426 Y92.231 E3.87398
G1 X85.769 Y98.574 E4.01513
G1 X86.669 Y98.574 E4.02930
G1 X79.426 Y91.331 E4.19049
G1 X79.426 Y90.430 E4.20466
G1 X87.570 Y98.574 E4.38588
G1 X88.470 Y98.574 E4.40005
G1 X79.426 Y89.530 E4.60132
G1 X79.426 Y88.629 E4.61548
G1 X89.371 Y98.574 E4.83679
G1 X90.271 Y98.574 E4.85095
G1 X79.426 Y87.729 E5.09229
G1 X79.426 Y86.829 E5.10646
G1 X91.171 Y98.574 E5.36784
G1 X92.072 Y98.574 E5.38201
G1 X79.426 Y85.928 E5.66342
G1 X79.426 Y85.028 E5.67759
G1 X92.972 Y98.574 E5.97904
G1 X93.872 Y98.574 E5.99321
G1 X79.426 Y84.128 E6.31470
G1 X79.426 Y83.227 E6.32887
G1 X94.773 Y98.574 E6.67039
G1 X95.673 Y98.574 E6.68456
G1 X79.426 Y82.327 E7.04613
G1 X79.446 Y81.446 E7.05998
G1 X96.554 Y98.554 E7.44070
G1 X96.574 Y97.673 E7.45455
G1 X80.327 Y81.426 E7.81612
G1 X81.227 Y81.426 E7.83029
G1 X96.574 Y96.773 E8.17181
G1 X96.574 Y95.872 E8.18598
G1 X82.128 Y81.426 E8.50747
G1 X83.028 Y81.426 E8.52164
G1 X96.574 Y94.972 E8.82309
G1 X96.574 Y94.072 E8.83726
G1 X83.928 Y81.426 E9.11867
G1 X84.829 Y81.426 E9.13284
G1 X96.574 Y93.171 E9.39422
G1 X96.574 Y92.271 E9.40839
G1 X85.729 Y81.426 E9.64973
G1 X86.629 Y81.426 E9.66389
G1 X96.574 Y91.371 E9.88520
G1 X96.574 Y90.470 E9.89937
G1 X87.530 Y81.426 E10.10063
G1 X88.430 Y81.426 E10.11480
G1 X96.574 Y89.570 E10.29603
G1 X96.574 Y88.669 E10.31019
G1 X89.331 Y81.426 E10.47138
G1 X90.231 Y81.426 E10.48555
G1 X96.574 Y87.769 E10.62670
G1 X96.574 Y86.869 E10.64087
G1 X91.131 Y81.426 E10.76199
G1 X92.032 Y81.426 E10.77616
G1 X96.574 Y85.968 E10.87723
G1 X96.574 Y85.068 E10.89140
G1 X92.932 Y81.426 E10.97244
G1 X93.832 Y81.426 E10.98661
G1 X96.574 Y84.168 E11.04761
G1 X96.574 Y83.267 E11.06178
G1 X94.733 Y81.426 E11.10275
G1 X95.633 Y81.426 E11.11692
G1 X96.574 Y82.367 E11.13784
G1 X96.574 Y81.466 E11.15201
G1 X96.534 Y81.426 E11.15290
M106 S255
G1 F1800.000 E10.15290
G92 E0
G1 Z0.850 F4800.000
G1 X97.400 Y99.400 F4800.000
G1 E1.00000 F1800.000
G1 X78.600 Y99.400 E1.15958 F1611.717
G1 X78.600 Y80.600 E1.31916
G1 X97.400 Y80.600 E1.47874
G1 X97.400 Y99.340 E1.63781
G1 X97.800 Y99.800 F4800.000
G1 X78.200 Y99.800 E1.80418 F1128.202
G1 X78.200 Y80.200 E1.97055
G1 X97.800 Y80.200 E2.13692
G1 X97.800 Y99.740 E2.30278
G1 X97.454 Y99.600 F4800.000
G1 X97.126 Y99.086 F4800.000
G1 X97.086 Y99.126 E2.30328 F2148.956
G1 X96.489 Y99.126 E2.30859
G1 X97.126 Y98.489 E2.31660
G1 X97.126 Y97.892 E2.32191
G1 X95.892 Y99.126 E2.33742
G1 X95.294 Y99.126 E2.34273
G1 X97.126 Y97.294 E2.36575
G1 X97.126 Y96.697 E2.37106
G1 X94.697 Y99.126 E2.40158
G1 X94.100 Y99.126 E2.40689
G1 X97.126 Y96.100 E2.44492
G1 X97.126 Y95.503 E2.45023
G1 X93.503 Y99.126 E2.49577
G1 X92.906 Y99.126 E2.50108
G1 X97.126 Y94.906 E2.55412
G1 X97.126 Y94.309 E2.55943
G1 X92.309 Y99.126 E2.61998
G1 X91.712 Y99.126 E2.62529
G1 X97.126 Y93.712 E2.69335
G1 X97.126 Y93.115 E2.69865
G1 X91.115 Y99.126 E2.77422
G1 X90.518 Y99.126 E2.77952
G1 X97.126 Y92.518 E2.86259
G1 X97.126 Y91.921 E2.86790
G1 X89.921 Y99.126 E2.95848
G1 X89.323 Y99.126 E2.96378
G1 X97.126 Y91.323 E3.06186
G1 X97.126 Y90.726 E3.06717
G1 X88.726 Y99.126 E3.17276
G1 X88.129 Y99.126 E3.17807
G1 X97.126 Y90.129 E3.29116
G1 X97.126 Y89.532 E3.29647
G1 X87.532 Y99.126 E3.41707
G1 X86.935 Y99.126 E3.42237
G1 X97.126 Y88.935 E3.55048
G1 X97.126 Y88.338 E3.55579
G1 X86.338 Y99.126 E3.69140
G1 X85.741 Y99.126 E3.69670
G1 X97.126 Y87.741 E3.83982
G1 X97.126 Y87.144 E3.84513
G1 X85.144 Y99.126 E3.99575
G1 X84.547 Y99.126 E4.00106
G1 X97.126 Y86.547 E4.15919
G1 X97.126 Y85.950 E4.16450
G1 X83.950 Y99.126 E4.33013
G1 X83.352 Y99.126 E4.33544
G1 X97.126 Y85.352 E4.50858
G1 X97.126 Y84.755 E4.51389
G1 X82.755 Y99.126 E4.69454
G1 X82.158 Y99.126 E4.69984
G1 X97.126 Y84.158 E4.88800
G1 X97.126 Y83.561 E4.89330
G1 X81.561 Y99.126 E5.08896
G1 X80.964 Y99.126 E5.09427
G1 X97.126 Y82.964 E5.29744
G1 X97.126 Y82.367 E5.30274
G1 X80.367 Y99.126 E5.51341
G1 X79.770 Y99.126 E5.51872
G1 X97.126 Y81.770 E5.73690
G1 X97.126 Y81.173 E5.74221
G1 X79.173 Y99.126 E5.96789
G1 X78.874 Y98.827 E5.97164
G1 X96.827 Y80.874 E6.19733
G1 X96.230 Y80.874 E6.20263
G1 X78.874 Y98.230 E6.42081
G1 X78.874 Y97.633 E6.42612
G1 X95.633 Y80.874 E6.63679
G1 X95.036 Y80.874 E6.64210
G1 X78.874 Y97.036 E6.84526
G1 X78.874 Y96.439 E6.85057
G1 X94.439 Y80.874 E7.04623
G1 X93.842 Y80.874 E7.05154
G1 X78.874 Y95.842 E7.23969
G1 X78.874 Y95.245 E7.24500
G1 X93.245 Y80.874 E7.42565
G1 X92.648 Y80.874 E7.43095
G1 X78.874 Y94.648 E7.60409
G1 X78.874 Y94.050 E7.60940
G1 X92.050 Y80.874 E7.77504
G1 X91.453 Y80.874 E7.78034
G1 X78.874 Y93.453 E7.93847
G1 X78.874 Y92.856 E7.94378
G1 X90.856 Y80.874 E8.09440
G1 X90.259 Y80.874 E8.09971
G1 X78.874 Y92.259 E8.24283
G1 X78.874 Y91.662 E8.24814
G1 X89.662 Y80.874 E8.38375
G1 X89.065 Y80.874 E8.38906
G1 X78.874 Y91.065 E8.51716
G1 X78.874 Y90.468 E8.52247
G1 X88.468 Y80.874 E8.64307
G1 X87.871 Y80.874 E8.64837
G1 X78.874 Y89.871 E8.76147
G1 X78.874 Y89.274 E8.76678
G1 X87.274 Y80.874 E8.87236
G1 X86.677 Y80.874 E8.87767
G1 X78.874 Y88.677 E8.97575
G1 X78.874 Y88.079 E8.98106
G1 X86.079 Y80.874 E9.07163
G1 X85.482 Y80.874 E9.07694
G1 X78.874 Y87.482 E9.16001
G1 X78.874 Y86.885 E9.16532
G1 X84.885 Y80.874 E9.24088
G1 X84.288 Y80.874 E9.24619
G1 X78.874 Y86.288 E9.31424
G1 X78.874 Y85.691 E9.31955
G1 X83.691 Y80.874 E9.38010
G1 X83.094 Y80.874 E9.38541
G1 X78.874 Y85.094 E9.43846
G1 X78.874 Y84.497 E9.44376
G1 X82.497 Y80.874 E9.48930
G1 X81.900 Y80.874 E9.49461
G1 X78.874 Y83.900 E9.53264
G1 X78.874 Y83.303 E9.53795
G1 X81.303 Y80.874 E9.56848
G1 X80.706 Y80.874 E9.57378
G1 X78.874 Y82.706 E9.59681
G1 X78.874 Y82.108 E9.60211
G1 X80.108 Y80.874 E9.61763
G1 X79.511 Y80.874 E9.62294
G1 X78.874 Y81.511 E9.63094
G1 X78.874 Y80.914 E9.63625
G1 X78.914 Y80.874 E9.63675
G1 F1800.000 E8.63675
G92 E0
G1 Z1.150 F4800.000
G1 X97.400 Y99.400 F4800.000
G1 E1.00000 F1800.000
G1 X78.600 Y99.400 E1.15958 F1611.717
G1 X78.600 Y80.600 E1.31916
G1 X97.400 Y80.600 E1.47874
G1 X97.400 Y99.340 E1.63781
G1 X97.800 Y99.800 F4800.000
G1 X78.200 Y99.800 E1.80418 F1128.202
G1 X78.200 Y80.200 E1.97055
G1 X97.800 Y80.200 E2.13692
G1 X97.800 Y99.740 E2.30278
G1 X97.454 Y99.600 F4800.000
G1 X78.874 Y99.086 F4800.000
G1 X78.914 Y99.126 E2.30328 F2148.956
G1 X79.511 Y99.126 E2.30859
G1 X78.874 Y98.489 E2.31660
G1 X78.874 Y97.892 E2.32191
G1 X80.108 Y99.126 E2.33742
G1 X80.706 Y99.126 E2.34273
G1 X78.874 Y97.294 E2.36575
G1 X78.874 Y96.697 E2.37106
G1 X81.303 Y99.126 E2.40158
G1 X81.900 Y99.126 E2.40689
G1 X78.874 Y96.100 E2.44492
G1 X78.874 Y95.503 E2.45023
G1 X82.497 Y99.126 E2.49577
G1 X83.094 Y99.126 E2.50108
G1 X78.874 Y94.906 E2.55412
G1 X78.874 Y94.309 E2.55943
G1 X83.691 Y99.126 E2.61998
G1 X84.288 Y99.126 E2.62529
G1 X78.874 Y93.712 E2.69335
G1 X78.874 Y93.115 E2.69865
G1 X84.885 Y99.126 E2.77422
G1 X85.482 Y99.126 E2.77952
G1 X78.874 Y92.518 E2.86259
G1 X78.874 Y91.921 E2.86790
G1 X86.079 Y99.126 E2.95848
G1 X86.677 Y99.126 E2.96378
G1 X78.874 Y91.323 E3.06186
G1 X78.874 Y90.726 E3.06717
G1 X87.274 Y99.126 E3.17276
G1 X87.871 Y99.126 E3.17807
G1 X78.874 Y90.129 E3.29116
G1 X78.874 Y89.532 E3.29647
G1 X88.468 Y99.126 E3.41707
G1 X89.065 Y99.126 E3.42237
G1 X78.874 Y88.935 E3.55048
G1 X78.874 Y88.338 E3.55579
G1 X89.662 Y99.126 E3.69140
G1 X90.259 Y99.126 E3.69670
G1 X78.874 Y87.741 E3.83982
G1 X78.874 Y87.144 E3.84513
G1 X90.856 Y99.126 E3.99575
G1 X91.453 Y99.126 E4.00106
G1 X78.874 Y86.547 E4.15919
G1 X78.874 Y85.950 E4.16450
G1 X92.050 Y99.126 E4.33013
G1 X92.648 Y99.126 E4.33544
G1 X78.874 Y85.352 E4.50858
G1 X78.874 Y84.755 E4.51389
G1 X93.245 Y99.126 E4.69454
G1 X93.842 Y99.126 E4.69984
G1 X78.874 Y84.158 E4.88800
G1 X78.874 Y83.561 E4.89330
G1 X94.439 Y99.126 E5.08896
G1 X95.036 Y99.126 E5.09427
G1 X78.874 Y82.964 E5.29744
G1 X78.874 Y82.367 E5.30274
G1 X95.633 Y99.126 E5.51341
G1 X96.230 Y99.126 E5.51872
G1 X78.874 Y81.770 E5.73690
G1 X78.874 Y81.173 E5.74221
G1 X96.827 Y99.126 E5.96789
G1 X97.126 Y98.827 E5.97164
G1 X79.173 Y80.874 E6.19733
G1 X79.770 Y80.874 E6.20263
G1 X97.126 Y98.230 E6.42081
G1 X97.126 Y97.633 E6.42612
G1 X80.367 Y80.874 E6.63679
G1 X80.964 Y80.874 E6.64210
G1 X97.126 Y97.036 E6.84526
G1 X97.126 Y96.439 E6.85057
G1 X81.561 Y80.874 E7.04623
G1 X82.158 Y80.874 E7.05154
G1 X97.126 Y95.842 E7.23969
G1 X97.126 Y95.245 E7.24500
G1 X82.755 Y80.874 E7.42565
G1 X83.352 Y80.874 E7.43095
G1 X97.126 Y94.648 E7.60409
G1 X97.126 Y94.050 E7.60940
G1 X83.950 Y80.874 E7.77504
G1 X84.547 Y80.874 E7.78034
G1 X97.126 Y93.453 E7.93847
G1 X97.126 Y92.856 E7.94378
G1 X85.144 Y80.874 E8.09440
G1 X85.741 Y80.874 E8.09971
G1 X97.126 Y92.259 E8.24283
G1 X97.126 Y91.662 E8.24814
G1 X86.338 Y80.874 E8.38375
G1 X86.935 Y80.874 E8.38906
G1 X97.126 Y91.065 E8.51716
G1 X97.126 Y90.468 E8.52247
G1 X87.532 Y80.874 E8.64307
G1 X88.129 Y80.874 E8.64837
G1 X97.126 Y89.871 E8.76147
G1 X97.126 Y89.274 E8.76678
G1 X88.726 Y80.874 E8.87236
G1 X89.323 Y80.874 E8.87767
G1 X97.126 Y88.677 E8.97575
G1 X97.126 Y88.079 E8.98106
G1 X89.921 Y80.874 E9.07163
G1 X90.518 Y80.874 E9.07694
G1 X97.126 Y87.482 E9.16001
G1 X97.126 Y86.885 E9.16532
G1 X91.115 Y80.874 E9.24088
G1 X91.712 Y80.874 E9.24619
G1 X97.126 Y86.288 E9.31425
G1 X97.126 Y85.691 E9.31955
G1 X92.309 Y80.874 E9.38010
G1 X92.906 Y80.874 E9.38541
G1 X97.126 Y85.094 E9.43846
G1 X97.126 Y84.497 E9.44376
G1 X93.503 Y80.874 E9.48930
G1 X94.100 Y80.874 E9.49461
G1 X97.126 Y83.900 E9.53264
G1 X97.126 Y83.303 E9.53795
G1 X94.697 Y80.874 E9.56848
G1 X95.294 Y80.874 E9.57379
G1 X97.126 Y82.706 E9.59681
G1 X97.126 Y82.108 E9.60211
G1 X95.892 Y80.874 E9.61763
G1 X96.489 Y80.874 E9.62294
G1 X97.126 Y81.511 E9.63094
G1 X97.126 Y80.914 E9.63625
G1 X97.086 Y80.874 E9.63676
G1 F1800.000 E8.63676
G92 E0
G1 Z1.450 F4800.000
G1 X97.400 Y99.400 F4800.000
G1 E1.00000 F1800.000
G1 X78.600 Y99.400 E1.15958 F916.921
G1 X78.600 Y80.600 E1.31916
G1 X97.400 Y80.600 E1.47874
G1 X97.400 Y99.340 E1.63781
G1 X97.800 Y99.800 F4800.000
G1 X78.200 Y99.800 E1.80418 F641.845
G1 X78.200 Y80.200 E1.97055
G1 X97.800 Y80.200 E2.13692
G1 X97.800 Y99.740 E2.30278
G1 X97.454 Y99.600 F4800.000
G1 X97.126 Y97.596 F4800.000
G1 X95.596 Y99.126 E2.32201 F916.921
G1 X93.621 Y99.126 E2.33957
G1 X97.126 Y95.621 E2.38363
G1 X97.126 Y93.646 E2.40118
G1 X91.646 Y99.126 E2.47006
G1 X89.672 Y99.126 E2.48761
G1 X97.126 Y91.672 E2.58131
G1 X97.126 Y89.697 E2.59887
G1 X87.697 Y99.126 E2.71739
G1 X85.722 Y99.126 E2.73494
G1 X97.126 Y87.722 E2.87829
G1 X97.126 Y85.748 E2.89584
G1 X83.748 Y99.126 E3.06401
G1 X81.773 Y99.126 E3.08157
G1 X97.126 Y83.773 E3.27456
G1 X97.126 Y81.799 E3.29211
G1 X79.799 Y99.126 E3.50993
G1 X78.874 Y98.076 E3.52236
G1 X96.076 Y80.874 E3.73860
G1 X94.101 Y80.874 E3.75615
G1 X78.874 Y96.101 E3.94756
G1 X78.874 Y94.126 E3.96511
G1 X92.126 Y80.874 E4.13170
G1 X90.152 Y80.874 E4.14926
G1 X78.874 Y92.152 E4.29102
G1 X78.874 Y90.177 E4.30857
G1 X88.177 Y80.874 E4.42552
G1 X86.202 Y80.874 E4.44307
G1 X78.874 Y88.202 E4.53519
G1 X78.874 Y86.228 E4.55274
G1 X84.228 Y80.874 E4.62004
G1 X82.253 Y80.874 E4.63760
G1 X78.874 Y84.253 E4.68007
G1 X78.874 Y82.279 E4.69762
G1 X80.279 Y80.874 E4.71528
G1 F1800.000 E3.71528
G92 E0
G1 Z1.750 F4800.000
G1 X97.400 Y99.400 F4800.000
G1 E1.00000 F1800.000
G1 X78.600 Y99.400 E1.15958 F917.108
G1 X78.600 Y80.600 E1.31916
G1 X97.400 Y80.600 E1.47874
G1 X97.400 Y99.340 E1.63781
G1 X97.800 Y99.800 F4800.000
G1 X78.200 Y99.800 E1.80418 F641.976
G1 X78.200 Y80.200 E1.97055
G1 X97.800 Y80.200 E2.13692
G1 X97.800 Y99.740 E2.30278
G1 X97.454 Y99.600 F4800.000
G1 X78.874 Y98.031 F4800.000
G1 X79.969 Y99.126 E2.31653 F917.108
G1 X81.943 Y99.126 E2.33409
G1 X78.874 Y96.057 E2.37267
G1 X78.874 Y94.082 E2.39022
G1 X83.918 Y99.126 E2.45362
G1 X85.892 Y99.126 E2.47117
G1 X78.874 Y92.108 E2.55939
G1 X78.874 Y90.133 E2.57695
G1 X87.867 Y99.126 E2.68999
G1 X89.842 Y99.126 E2.70754
G1 X78.874 Y88.158 E2.84541
G1 X78.874 Y86.184 E2.86296
G1 X91.816 Y99.126 E3.02565
G1 X93.791 Y99.126 E3.04321
G1 X78.874 Y84.209 E3.23072
G1 X78.874 Y82.235 E3.24827
G1 X95.765 Y99.126 E3.46061
G1 X97.126 Y98.511 E3.47388
G1 X79.489 Y80.874 E3.69559
G1 X81.463 Y80.874 E3.71314
G1 X97.126 Y96.537 E3.91003
G1 X97.126 Y94.562 E3.92759
G1 X83.438 Y80.874 E4.09965
G1 X85.412 Y80.874 E4.11721
G1 X97.126 Y92.588 E4.26445
G1 X97.126 Y90.613 E4.28201
G1 X87.387 Y80.874 E4.40443
G1 X89.362 Y80.874 E4.42198
G1 X97.126 Y88.638 E4.51958
G1 X97.126 Y86.664 E4.53714
G1 X91.336 Y80.874 E4.60991
G1 X93.311 Y80.874 E4.62747
G1 X97.126 Y84.689 E4.67542
G1 X97.126 Y82.715 E4.69298
G1 X95.285 Y80.874 E4.71611
G1 F1800.000 E3.71611
G92 E0
G1 Z2.050 F4800.000
G1 X97.400 Y99.400 F4800.000
G1 E1.00000 F1800.000
G1 X78.600 Y99.400 E1.15958 F916.921
G1 X78.600 Y80.600 E1.31916
G1 X97.400 Y80.600 E1.47874
G1 X97.400 Y99.340 E1.63781
G1 X97.800 Y99.800 F4800.000
G1 X78.200 Y99.800 E1.80418 F641.845
G1 X78.200 Y80.200 E1.97055
G1 X97.800 Y80.200 E2.13692
G1 X97.800 Y99.740 E2.30278
G1 X97.454 Y99.600 F4800.000
G1 X97.126 Y97.596 F4800.000
G1 X95.596 Y99.126 E2.32201 F916.921
G1 X93.621 Y99.126 E2.33957
G1 X97.126 Y95.621 E2.38363
G1 X97.126 Y93.646 E2.40118
G1 X91.646 Y99.126 E2.47006
G1 X89.672 Y99.126 E2.48761
G1 X97.126 Y91.672 E2.58131
G1 X97.126 Y89.697 E2.59887
G1 X87.697 Y99.126 E2.71739
G1 X85.722 Y99.126 E2.73494
G1 X97.126 Y87.722 E2.87829
G1 X97.126 Y85.748 E2.89584
G1 X83.748 Y99.126 E3.06401
G1 X81.773 Y99.126 E3.08157
G1 X97.126 Y83.773 E3.27456
G1 X97.126 Y81.799 E3.29211
G1 X79.799 Y99.126 E3.50993
G1 X78.874 Y98.076 E3.52236
G1 X96.076 Y80.874 E3.73860
G1 X94.101 Y80.874 E3.75615
G1 X78.874 Y96.101 E3.94756
